!!!COM: Palestrina, Giovanni Perluigi da
!!!OPR: Missa In duplicibus minoribus (I)
!!!OMD: Gloria
!!!OTL: Benedicimus
**kern	**kern	**kern	**kern	**kern
*Ibass	*Itenor	*Itenor	*Icalto	*Icant
!Bassus	!Tenor 2	!Tenor 1	!Altus	!Cantus
*clefF4	*clefGv2	*clefGv2	*clefG2	*clefG2
*k[]	*k[]	*k[]	*k[]	*k[]
*E:phr	*E:phr	*E:phr	*E:phr	*E:phr
*M4/2	*M4/2	*M4/2	*M4/2	*M4/2
=11	=11	=11	=11	=11
1.E	1B	0r	1r	0r
.	1G	.	1e	.
2C	.	.	.	.
=12	=12	=12	=12	=12
2F	1A	0r	1c	0r
2A	.	.	.	.
2.G	2.B	.	1d	.
4F	4A	.	.	.
=13	=13	=13	=13	=13
2G	2B	0r	2e	0r
1A	1c	.	2.f	.
.	.	.	4e	.
2G	2B	.	[2e	.
=14	=14	=14	=14	=14
1F	1A	2r	2e]	1r
.	.	1A	2d	.
1E	1B	.	2.e	1b
.	.	2G	.	.
.	.	.	4d	.
=15	=15	=15	=15	=15
1r	1r	2c	4e	1g
.	.	.	4f#	.
.	.	2e	2.g	.
1D	2r	2.d	.	1a
.	.	.	4f#	.
.	2d	.	4f#	.
.	.	4c	8e	.
.	.	.	8f#	.
=16	=16	=16	=16	=16
2G	2B	2d	0g	2b
1C	2.G	1e	.	1cc
.	4A	.	.	.
2G	2B	2d	.	[2b
=17	=17	=17	=17	=17
0A	4c	0c	[0e	2b]
.	4d	.	.	.
.	4e	.	.	4a
.	4d	.	.	4g#
.	4c	.	.	1a
.	4B	.	.	.
.	[2A	.	.	.
=18	=18	=18	=18	=18
[0E	2A]	[0B	0e]	[0b
.	4G#	.	.	.
.	4F#	.	.	.
.	1G#	.	.	.
=19	=19	=19	=19	=19
1E_	[0G#	1B_	[0e	1b_
1E_	.	1B_	.	1b_
=20	=20	=20	=20	=20
0E]	0G#]	0B]	0e]	0b]
*-	*-	*-	*-	*-
!!!CDT: 1525/^1526/-1594/2/2
!!!OCY: Italia
!!!AGN: Mass (Paraphrase)
!!!AST: renaissance, vocal
!!!ASW: Gregorian Mass
!!!PWK: Masses, Book Mantuan I
!!!RNB: Cadence finals: A
!!!YOR: Le Opere Complete, v. 18, p. 42
!!!YOO: Rome, Italy: Fratelli Scalera
!!!END: 1992//
!!!EED: John Miller
!!!YEC: Copyright 2000, John Miller
!!!YEN: United States of America
!!!YEM: Rights to all derivative electronic formats reserved.
!!!YEM: Refer to licensing agreement for further details.
!!!YEM: This file must be accompanied by the licensing agreement.
!!!YEM: A copy of the licensing agreement may be found at http://www.music-cog.ohio-state.edu/HumdrumDatabases/Palestrina/license.txt
!!!EMD: converted to Humdrum by Bret Aarden
